X:1
T:Title
%%score { ( 1 4 ) | ( 2 3 ) }
L:1/8
Q:1/4=100
M:4/4
K:A
V:1 treble nm="Grand Piano"
V:4 treble 
V:2 bass 
V:3 bass 
V:1
 e3 e cd e2 | AB c2 F2 [EG]2 | [EA]3 [EA] [EB]2 [Ec]2 | dc d2 c4 | c3 c B2 [Ge]2 | %5
w: Maltbie~Babcock * * * *|||||
 .[Ae]2 [EAc]2 c2 B2 | B3 B [Ee]2 [EB]2 | AG [^DF]2 E4 | e3 e cd e2 | AB c2 d2 A2 | %10
w: |||||
 F3 F [B,EG]2 [A,EA]2 | .[A,FA]2 [FB]2 [^Ec]4 | z4 f2 z2 | dc B2 e2 d2 | c3 [Ec] .[Fc]2 [B,FA]2 | %15
w: |||||
 .[CEA]2 [DGB]2 [CA]4 |] %16
w: |
V:2
 [A,CE]3 [A,CE] [A,CE]2 [G,B,E]2 | [F,A,D]2 [E,G,C]2 [D,A,D]2 [D,B,]2 | %2
 [C,A,]3 [C,A,] [B,,G,]2 [A,,A,]2 | [F,A,D]2 [G,B,E]2 [A,E]4 | [A,B,^D]3 [A,B,D] [G,B,E]2 [C,C]2 | %5
 z[K:treble] ^d F,2 [A,EF]2 [A,^DF]2 | [G,B,E]3[K:bass] [G,B,E] [C,G,]2 [C,C]2 | %7
 [F,CE]2 [B,,A,]2 [E,G,]4 | z4 .E2 z2 | .C2 z2 z4 | [D,A,D]3 [D,A,D] D,2 C,2 | %11
 z F, [D,G,]2 [C,G,]4 | [F,^A,F]3 [F,A,F] F-[G,F] [A,CF]2 | %13
 [B,DF]2 [A,DF]2[K:bass] [G,B,E]2 [E,G,E]2 | [A,E]3 [C,A,] z[K:treble] B[K:bass] D,2 | %15
 z F E,2 A,4 |] %16
V:3
 x8 | x8 | x8 | x8 | x8 | [F,C]2[K:treble] z2 z4 | x3[K:bass] x5 | x8 | %8
 [A,C=G]3 [A,CG] [A,G]-[A,DG] [A,CG]2 | [=G,E]-[G,B,E] [G,A,E]2 [F,A,D]2 [E,A,C]2 | x8 | %11
 D,2 z2 z4 | z4 .[F,^A,]2 z2 | x4[K:bass] x4 | z4 [D,A,]2[K:treble][K:bass] z2 | E,2 z2 z4 |] %16
V:4
 x8 | x8 | x8 | x8 | x8 | x8 | x8 | x8 | x8 | x8 | x8 | x8 | c3 c z B, e2 | x8 | x8 | x8 |] %16

